X:1
T:[ID 11-21d]
T:[ID 11-21d]
T:Bezeichnung standardisiert: Nro 4 Nro 4
T:Urheber unbekannt Datum in der hier transkribierten schriftlichen Quelle: vermutlich um 1800
C:Urheber unbekannt
C:Datum in der hier transkribierten schriftlichen Quelle: vermutlich um 1800
L:1/8
M:3/4
K:Bb
V:1 treble 
V:1
"^=XI,23d" f2 | fbfdec | BdBFDF | C2 Acec | BABd f2 | fbfdec | BdBFDF | CFAceA | B4 :: DF | %10
 C2 Acec | BABdfb | egAceA | BABd f2 | C2 Acec | BABd f2 | egceAc | B4 :| %18

